X:1
T:Trell, LM
T:Trell, LM
T:Lowell Mason, 1844
T:Public Domain Courtesy of the Cyber Hymnal™
C:Lowell Mason, 1844
Z:Public Domain
Z:Courtesy of the Cyber Hymnal™
%%score ( 1 2 ) ( 3 4 )
L:1/8
Q:1/4=105
M:2/4
K:C
V:1 treble 
V:2 treble 
V:3 bass 
V:4 bass 
V:1
 G | E2 C2 | A3 G | F2 E2 | D2 [^Fd]2 | [Gd][GB] [Ec][EA] | G2 z x3 | [B,G]3 E | E2 D2 | CE EG | %10
 Gc [FB]2 | [Ec]2 [EG]2 | [FA]>[FA] [FA][FA] | G2 c2 | (e2 z F) x | [Ec]3 |] %16
V:2
 G | E2 C2 | A3 G | F2 E2 | D2 x2 | x4 | D3 ^F2 C | x3 E | E2 D2 | (CE) (EG) | G2 x2 | x4 | x4 | %13
 E4- | G3 d2 | x3 |] %16
V:3
 [G,,G,] | [E,,E,]2 [C,,C,]2 | [A,,A,]3 [G,,G,] | [F,,F,]2 [E,,E,]2 | [D,,D,]2 [A,,D,]2 | %5
 [B,,G,][G,,G,] [A,,C,]C, | [B,,D,]2 [A,,D,]2 x2 | [G,,G,]3 [G,,G,] | [G,,G,]2 [F,,G,,]2 | %9
 C,2 (C,E,) | [E,G,]2 [G,,D,]2 | C,2 C,2 | [C,F,]>[C,F,] [C,F,][C,F,] | ([C,G,]4- | %14
 G,2 [G,,B,,]2) x | [G,,C,]3 |] %16
V:4
 x | x4 | x4 | x4 | x4 | x3 C, | x6 | x4 | x4 | (E,,G,,) C,2 | x4 | C,2 C,2 | x4 | x4 | C,4 x | %15
 x3 |] %16

